X:28
T:Lichtmann 28
C:A. Dvorak
M:C
L:1/8
Q:"Lento" 1/8=72
K:Bb
!p!(D>F)"_dolce" F2(D>C) B,2|(D>D F>D C4)|(D>F) F2 (DC) B,2|(CD C>B,) B,4|
(G>B)B2(AF) G2|(GBAFG4)|(G>B) B2 (AF) G2|(GBAF) G4|(D>F) F2 (D>C B,2)|
(C>D F>D C4)|(D>F) F2 (B>c) d2|(c>B cG) B4|(c>B cG) B4|(c3Bc2G2)|B8|]

